Newaita-dark/.DP/16/network-vpn-acquiring.svg

<?xml version="1.0" encoding="UTF-8"?>
<svg xmlns="http://www.w3.org/2000/svg" xmlns:xlink="http://www.w3.org/1999/xlink" width="16pt" height="16pt" viewBox="0 0 16 16" version="1.1">
<g id="surface1">
<path style=" stroke:none;fill-rule:nonzero;fill:rgb(74.117649%,74.117649%,74.117649%);fill-opacity:1;" d="M 3.636719 5.746094 C 2.355469 5.746094 1.324219 6.78125 1.324219 8.0625 C 1.324219 9.347656 2.355469 10.378906 3.636719 10.378906 C 3.972656 10.378906 4.289062 10.308594 4.578125 10.179688 C 4.191406 9.570312 3.96875 8.84375 3.96875 8.0625 C 3.96875 7.285156 4.191406 6.558594 4.578125 5.945312 C 4.289062 5.820312 3.972656 5.746094 3.636719 5.746094 Z M 12.238281 5.746094 C 11.902344 5.746094 11.585938 5.820312 11.300781 5.945312 C 11.683594 6.558594 11.90625 7.285156 11.90625 8.0625 C 11.90625 8.84375 11.683594 9.570312 11.300781 10.179688 C 11.585938 10.308594 11.902344 10.378906 12.238281 10.378906 C 13.519531 10.378906 14.554688 9.347656 14.554688 8.0625 C 14.554688 6.78125 13.519531 5.746094 12.238281 5.746094 Z M 12.238281 5.746094 "/>
<path style=" stroke:none;fill-rule:nonzero;fill:rgb(74.117649%,74.117649%,74.117649%);fill-opacity:1;" d="M 7.9375 5.085938 C 9.582031 5.085938 10.914062 6.417969 10.914062 8.0625 C 10.914062 9.707031 9.582031 11.039062 7.9375 11.039062 C 6.292969 11.039062 4.960938 9.707031 4.960938 8.0625 C 4.960938 6.417969 6.292969 5.085938 7.9375 5.085938 Z M 7.9375 5.085938 "/>
</g>
</svg>

<svg xmlns="http://www.w3.org/2000/svg" width="16pt" height="16pt" viewBox="0 0 16 16"><g fill="#bdbdbd"><path d="M3.637 5.746a2.31 2.31 0 0 0-2.313 2.316 2.308 2.308 0 0 0 2.313 2.317c.336 0 .652-.07.941-.2a3.937 3.937 0 0 1-.61-2.117c0-.777.223-1.503.61-2.117-.289-.125-.605-.199-.941-.199zm8.601 0a2.33 2.33 0 0 0-.937.2c.383.613.605 1.34.605 2.117 0 .78-.222 1.507-.605 2.117a2.311 2.311 0 0 0 3.254-2.117 2.314 2.314 0 0 0-2.317-2.317zm0 0M7.938 5.086a2.976 2.976 0 1 1 0 5.953 2.976 2.976 0 1 1 0-5.953zm0 0"/></g></svg>
